X: 3110
T: Mr THOMAS BURT
C: Carl Volti
Q:"Reel."
R: Reel.
%R:reel
B: James Kerr "Merry Melodies" v.3 p.13 #110
Z: 2016 John Chambers <jc:trillian.mit.edu>
M: C
L: 1/8
K: A
|:\
A2(Ac) BAFG | A2(Ac) efga |\
A2(Ac) BAFA | EFAc   B2A2 :|\
e2(ae) fecd | e2(ae) f2e2 |
e2(ae) fecA | EFAc   B2A2 |\
e2(ae) fecd | e2(ae) f2e2 |\
aefd   ecBA | EFAc   B2A2 |]

%%sep 1 1 500
%%sep 1 1 500

